svgs/solid/sailboat.svg

<svg xmlns="http://www.w3.org/2000/svg" viewBox="0 0 576 512"><!--! Font Awesome Pro 6.1.1 by @fontawesome - https://fontawesome.com License - https://fontawesome.com/license (Commercial License) Copyright 2022 Fonticons, Inc. --><path d="M256 16C256 9.018 260.5 2.841 267.2 .7414C273.9-1.358 281.1 1.105 285.1 6.826L509.1 326.8C512.5 331.7 512.9 338.1 510.2 343.4C507.4 348.7 501.1 352 496 352H272C263.2 352 256 344.8 256 336V16zM212.1 96.54C219.1 98.4 224 104.7 224 112V336C224 344.8 216.8 352 208 352H80C74.3 352 69.02 348.1 66.16 344C63.3 339.1 63.28 333 66.11 328.1L194.1 104.1C197.7 97.76 205.1 94.68 212.1 96.54V96.54zM5.718 404.3C2.848 394.1 10.52 384 21.12 384H554.9C565.5 384 573.2 394.1 570.3 404.3L566.3 418.7C550.7 473.9 500.4 512 443 512H132.1C75.62 512 25.27 473.9 9.747 418.7L5.718 404.3z"/></svg>

<svg xmlns="http://www.w3.org/2000/svg" viewBox="0 0 576 512"><!--! Font Awesome Pro 6.5.1 by @fontawesome - https://fontawesome.com License - https://fontawesome.com/license (Commercial License) Copyright 2023 Fonticons, Inc. --><path d="M256 16c0-7 4.5-13.2 11.2-15.3s13.9 .4 17.9 6.1l224 320c3.4 4.9 3.8 11.3 1.1 16.6s-8.2 8.6-14.2 8.6H272c-8.8 0-16-7.2-16-16V16zM212.1 96.5c7 1.9 11.9 8.2 11.9 15.5V336c0 8.8-7.2 16-16 16H80c-5.7 0-11-3-13.8-8s-2.9-11-.1-16l128-224c3.6-6.3 11-9.4 18-7.5zM5.7 404.3C2.8 394.1 10.5 384 21.1 384H554.9c10.6 0 18.3 10.1 15.4 20.3l-4 14.3C550.7 473.9 500.4 512 443 512H133C75.6 512 25.3 473.9 9.7 418.7l-4-14.3z"/></svg>
